X:1
T:Title
%%score { 1 | ( 2 3 ) }
L:1/8
M:4/4
K:Ab
V:1 treble nm="Grand Piano"
V:2 bass 
V:3 bass 
V:1
 z4 z2[Q:1/4=106] [CE]2 | [Ec]3 [Ec] [Ec]2 [=EB]2 | [FA]2 F2 A2 F2 | [CE]3 [CA] [CA]2 [=Dc]2 | %4
[M:3/4] B6 |[M:1/4] E2 |[M:4/4] [Ec]3 [Ec] [Ec]2 [=EB]2 | [FA]2 F2 A2 F2 | E3 c c2 B2 | %9
[M:3/4] [CA]6 |[M:1/4] [_GA]2 |[M:4/4] [Fd]3 [Fd] [Fd]3 [Fd] | [FA]2 [=EB]2 [_Ec]2 c2 | %13
 e3 e c2 A2 |[M:3/4] [GB]6 |[M:1/4] cd |[M:4/4] e3 c cB A2 | [FB]2 [Fc]2 [Fd]2 [FB]2 | A3 c c2 B2 | %19
[M:3/4] [CA]6 |] %20
V:2
 z4 z2 [A,,A,]2 | [A,,A,]3 [A,,A,] [A,,A,]2 [C,G,]2 | [D,F,]2 [D,A,D]2 [D,F,D]2 [D,A,D]2 | %3
 [A,,A,]3 [A,,A,] [A,,A,]2 [B,,A,]2 |[M:3/4] [E,G,E]6 |[M:1/4] [E,G,]2 | %6
[M:4/4] [A,,A,]3 [A,,A,] [A,,A,]2 [C,G,]2 | [D,F,]2 [D,A,D]2 [D,F,D]2 [D,A,D]2 | %8
 [E,A,C]3 [E,A,E] [E,G,E]2 [E,G,D]2 |[M:3/4] [A,,A,]6 |[M:1/4] [A,C]2 | %11
[M:4/4] [D,A,]3 [D,A,] [D,A,]3 [D,A,] | [D,D]2 [D,A,]2 [A,,A,]2[K:treble] [A,E]2 | %13
 [A,CA]3 [A,CA] [A,EA]2 [B,=DF]2 |[M:3/4] [E,E]6 |[M:1/4] E z |[M:4/4] z4 .E2[K:bass] z2 | %17
 [D,D]2 [C,=A,]2 [B,,B,]2 [D,B,]2 | [E,CE]3 [E,A,E] [E,G,E]2 [E,G,D]2 |[M:3/4] [A,,A,]6 |] %20
V:3
 x8 | x8 | x8 | x8 |[M:3/4] x6 |[M:1/4] x2 |[M:4/4] x8 | x8 | x8 |[M:3/4] x6 |[M:1/4] x2 | %11
[M:4/4] x8 | x6[K:treble] x2 | x8 |[M:3/4] x6 |[M:1/4] [A,A]-[A,DA] | %16
[M:4/4] [A,CA]3 [A,EA] [A,A]-[A,DA][K:bass] [A,CE]2 | x8 | x8 |[M:3/4] x6 |] %20

